src/images/icons/fb.svg

<svg width="25" height="24" viewBox="0 0 25 24" fill="none" xmlns="http://www.w3.org/2000/svg">
<g opacity="0.5">
<path d="M14.3333 9.25H18.6666V13.375H14.3333V23H9.99996V13.375H5.66663V9.25H9.99996V7.52437C9.99996 5.8895 10.5402 3.82425 11.6148 2.69537C12.6895 1.56375 14.0314 1 15.6391 1H18.6666V5.125H15.6333C14.914 5.125 14.3333 5.67775 14.3333 6.36112V9.25Z" fill="white"/>
</g>
</svg>

<svg width="25" height="24" fill="none" xmlns="http://www.w3.org/2000/svg"><path d="M14.333 9.25h4.334v4.125h-4.334V23H10v-9.625H5.667V9.25H10V7.524c0-1.635.54-3.7 1.615-4.829C12.69 1.564 14.03 1 15.639 1h3.028v4.125h-3.034c-.719 0-1.3.553-1.3 1.236V9.25Z" fill="#fff" opacity=".5"/></svg>
